!!!!SEGMENT: pl-wnifc--13846--071_anonim--piesni-polskie-i-ruskie-ludu-galicyjskiego-71-oj-znaty-znaty-kto-koho-lubyt.krn
!!!kernsource:
!!!cenid: 18xx:3293
!!!COM: Anonim
!!!COM-rismid: pe30004985
!!!CDT:
!!!CNT:
!!!GTL: Pieśni polskie i ruskie ludu galicyjskiego
!!!OTL: 71. Oj znaty, znaty kto koho lubyt
!!!PDT: 1833
!!!AGN:
!!!SMS-siglum: PL-Wnifc
!!!SMS-shelfmark: 13846
!!!SMS-shelfwork: 071 G
!!!NIFC-rismid: 1001037235
!!!URL-scan: http://repozytorium.nifc.pl/skany/pl-wnifc-nut--13846
!!!ONB-nifc:
!!!key: A
!!!OMD: Moderato
**kern	**kern	**dynam	**kern	**text
*part2	*part2	*part1	*part1	*part1
*staff3	*staff2	*	*staff1	*staff1
*I"FORTEPIAN.	*I"FORTEPIAN.	*	*I"GŁOS.	*
*Ipiano	*Ipiano	*	*Ivox	*
*ICklav	*ICklav	*	*ICvox	*
*IGacmp	*IGacmp	*	*IGsolo	*
*clefF4	*clefG2	*	*clefG2	*
*k[f#c#g#]	*k[f#c#g#]	*	*k[f#c#g#]	*
*A:	*A:	*	*A:	*
*M3/4	*M3/4	*	*M3/4	*
=1-	=1-	=1-	=1-	=1-
!	!	!	!LO:TX:a:t=E.9.	!
[<2AA/ 2AAA/	4cc#\ 4e\	.	4cc#\	Oj
.	(8dd\L 8f#\	.	(8dd\L	zna-
.	8cc#\J 8e\)	.	8cc#\J)	.
4AA/]	(8b\L 8d\	.	(8b\L	-ty,
.	8a\J 8c#\)	.	8a\J)	.
=2	=2	=2	=2	=2
4AAA/	4a/ 4c#/	.	(4a/	zna-
.	.	.	8qf#/)	.
8AA\L	2e/ 2c#/	.	2e/	-ty
8C#\	.	.	.	.
8E\	.	.	.	.
8A\J	.	.	.	.
=3	=3	=3	=3	=3
4AA/	4cc#\ 4e\	.	4cc#\	kto
2A\	(8dd\L 8f#\	.	(8dd\L	ko-
.	8cc#\J 8e\)	.	8cc#\J)	.
.	(8b\L 8d\	.	(8b\L	-ho
.	8a\J 8c#\)	.	8a\J)	.
!!LO:LB:g=original
=4	=4	=4	=4	=4
4D/ 4BB/ 4GG#/ 4EE/	4ff#/ 4f#/	.	4ff#\	lu-
32qE/LLL	.	.	.	.
32qG#/	.	.	.	.
32qB/JJJ	.	.	.	.
8d\'L	2ee/ 2e/	.	2ee\	-byt
8B\'	.	.	.	.
8G#\'	.	.	.	.
8E\'J	.	.	.	.
=5	=5	=5	=5	=5
*	*^	*	*	*
4AA/	4cc#/	4cc#\ 4a\ 4e\	.	4cc#\	bły-
*	*v	*v	*	*	*
2A/ 2AA/	8dd/L 8a/ 8f#/	.	(8dd\L	-sko
.	8cc#/J 8a/ 8e/	.	8cc#\J)	.
.	8b/L 8f#/ 8d/	.	(8b\L	si-
.	8a/J 8e/ 8c#/	.	8a\J)	.
=6	=6	=6	=6	=6
8AAA/'L	4a/ 4c#/	<	4a/	-da-
(8AA/	.	.	.	.
.	.	.	8qf#/	.
8GG#/	2e/ 2c#/	[ >	2e/	-je
8AA/J)	.	]	.	.
!LO:TX:t=P:problem:mixed beam	!	!	!	!
8A\L	.	.	.	.
8AA/J	.	.	.	.
!!LO:LB:g=original
=7	=7	=7	=7	=7
4D/ 4DD/	(8f#/L 8d/	.	(8f#/L	i
.	8a/J 8f#/)	.	8a/J)	.
2E/ 2EE/	4.g#/ 4.d/ 4.B/	.	4.g#/	pry-
.	8b/ 8d/	.	8b/	-ho-
=8	=8	=8	=8	=8
2.E/ 2.AA/	(8b/L 8d/	.	(8b/L	-łu-
.	8a/J 8c#/)	.	8a/J)	.
.	2a/ 2c#/	.	2a/	-byt
==	==	==	==	==
*-	*-	*-	*-	*-
!!!system-decoration: s1{(s2,s3)}
!!!RDF**kern: < = below
!!!AIN: 1 piano 1 vox
!!!ENC: Marta Lawrence
!!!END: 2021-11-10
